X: 1
T:Balance the Straw
M:4/4
C:
S:Bacon (Jour 1934 (RKS))
N:
A:Bledington
O:English
R:Reel
%:
%:
%P:A/2.AB.(CB)$^2$
P:A.AB.(CB)2
L:1/8
K:G
I:speed 400
P:A
|:DG|B2 B2 BdcB|c2 A2 A2 \
Bc|d2 B2 c2 Ac|B2 G2 G2:|\
P:B
gf|e2 d2 d2 G2|B2 B2 B2 \
gf|e2 d2 d2 G2|GGFE  D2 \
DG|B2 B2 BdcB|c2 A2 A2 \
Bc|d2 B2 c2 Ac|B2 G2 G2||\
P:C
|:z2|D2 G2 B4|B4    B2 d2|c2 B2 c4|A4   A2 \
Bc|d2 B2 c2 Bc|B2 G2 G2:|
